X: 7889
T: Con Cassidy's
R: jig
M: 6/8
K: Dmajor
F^EF GFG|AFd A2 d|cBA GFE|FDd A2 G|
F^EF GFG|AFd A2 d|cBA GFE|D3:|
dDD cDD|Bcd A2 G|FE^D Ee=d|cB^A Bcd|
e2 c dcB|cBA cde|dcB ABc|dDD:|

